!!!COM: Palestrina, Giovanni Perluigi da
!!!OPR: Missa In semidupl. maj. (I)
!!!OMD: Credo
!!!OTL: Et resurrexit
**kern	**kern	**kern	**kern
*Ibass	*Itenor	*Icalto	*Icant
!Bassus	!Tenor	!Altus	!Cantus
*clefF4	*clefGv2	*clefG2	*clefG2
*k[b-]	*k[b-]	*k[b-]	*k[b-]
*F:ion	*F:ion	*F:ion	*F:ion
*M4/2	*M4/2	*M4/2	*M4/2
=77	=77	=77	=77
1F	1r	0r	0r
2F	1c	.	.
2F	.	.	.
=78	=78	=78	=78
2E	2c	0r	0r
2C	2c	.	.
4D	2B-	.	.
4E	.	.	.
4F	2A	.	.
4D	.	.	.
=79	=79	=79	=79
2E	1c	0r	0r
2F	.	.	.
2G	2B-	.	.
[2F	2A	.	.
=80	=80	=80	=80
2F]	1G	1r	0r
2E	.	.	.
[1F	2.F	2r	.
.	.	2f	.
.	4G	.	.
=81	=81	=81	=81
1F]	0A	2f	1cc
.	.	2f	.
1r	.	2e	2cc
.	.	2c	2cc
=82	=82	=82	=82
0r	0r	4d	2b-
.	.	4e	.
.	.	4f	2a
.	.	4d	.
.	.	2e	1cc
.	.	2f	.
=83	=83	=83	=83
2r	0r	2g	2b-
2FF	.	1f	2a
1C	.	.	[1g
.	.	4e	.
.	.	4d	.
=84	=84	=84	=84
2C	0r	4e	1g]
.	.	4d	.
2C	.	4c	.
.	.	4B-	.
4D	.	1A	1f
4E	.	.	.
[2F	.	.	.
=85	=85	=85	=85
2F]	1C	1G	1g
4E	.	.	.
4D	.	.	.
4E	1G	1r	1r
4D	.	.	.
4C	.	.	.
4D	.	.	.
=86	=86	=86	=86
4E	2G	0r	1r
4F	.	.	.
2.G	2G	.	.
.	1A	.	1c
4F	.	.	.
[2F	.	.	.
=87	=87	=87	=87
2F]	1G	0r	1g
4E	.	.	.
4D	.	.	.
1E	1C	.	2g
.	.	.	2g
=88	=88	=88	=88
1D	2r	1F	1.a
.	1F	.	.
1C	.	1c	.
.	2E	.	2g
=89	=89	=89	=89
0r	2F	2c	2a
.	2A	2c	2.cc
.	1G	1d	.
.	.	.	4b-
.	.	.	2b-
=90	=90	=90	=90
1FF	1.A	1c	2a
.	.	.	4g
.	.	.	4f
1C	.	[1c	2e
.	4G	.	[2f
.	4F	.	.
=91	=91	=91	=91
2C	1G	1c]	4f]
.	.	.	8e
.	.	.	8d
2C	.	.	2e
1D	1F	2r	[1f
.	.	2F	.
=92	=92	=92	=92
1.C	2r	1c	2f]
.	2C	.	4e
.	.	.	4d
.	1G	2c	1e
4BB-	.	2c	.
4AA	.	.	.
=93	=93	=93	=93
1BB-	2G	1d	2d
.	2G	.	2.g
2.AA	1A	1c	.
.	.	.	4f
.	.	.	[2f
4BB-	.	.	.
=94	=94	=94	=94
0C	0G	0c	2f]
.	.	.	4e
.	.	.	4d
.	.	.	1e
=95	=95	=95	=95
[0FF	[0F	[0A	[0f
=96	=96	=96	=96
0FF]	0F]	0A]	0f]
*-	*-	*-	*-
!!!CDT: 1525/^1526/-1594/2/2
!!!OCY: Italia
!!!AGN: Mass (Paraphrase)
!!!AST: renaissance, vocal
!!!ASW: Gregorian Mass
!!!PWK: Masses, Book Mantuan II
!!!RNB: Cadence finals: C
!!!YOR: Le Opere Complete, v. 19, p. 129
!!!YOO: Rome, Italy: Fratelli Scalera
!!!END: 1992//
!!!EED: John Miller
!!!YEC: Copyright 2000, John Miller
!!!YEN: United States of America
!!!YEM: Rights to all derivative electronic formats reserved.
!!!YEM: Refer to licensing agreement for further details.
!!!YEM: This file must be accompanied by the licensing agreement.
!!!YEM: A copy of the licensing agreement may be found at http://www.music-cog.ohio-state.edu/HumdrumDatabases/Palestrina/license.txt
!!!EMD: converted to Humdrum by Bret Aarden
